X:1
T:All the Way to Galway
L:1/4
M:C|
I:linebreak $
K:D
V:1 treble
V:1
"D" A3/2 B/ A G | F A d2 |"Em" E F G (3F/G/F/ | "A"E F G ^G |$
 "D"A3/2 B/ A G | F A c>d | "A"c A G E |  "D"D2 D2 ::$
 "D"d3/2 e/ f d | "A"c A A3/2 c/ | "G"B G G/A/ B | "A"B A A2 |$
 "D"d3/2 e/ f d | "A"c a a3/2 a/ | "G"b a "A"g e |  "D"d2 d2 :|
